icons/svg/broom.svg

<svg width="24" height="24" viewBox="0 0 24 24" fill="none" xmlns="http://www.w3.org/2000/svg">
<path d="M13.4437 17.6257L14.1508 16.9186C16.1034 14.966 16.1034 11.8001 14.1508 9.84752M13.4437 17.6257L6.37265 10.5546M13.4437 17.6257L10.6153 21.8683L2.13 13.3831L6.37265 10.5546M6.37265 10.5546L7.07975 9.84752C9.03237 7.8949 12.1982 7.8949 14.1508 9.84752M14.1508 9.84752L20.8683 3.13" stroke="currentColor" stroke-width="1.5" stroke-linecap="round" stroke-linejoin="round"/>
</svg>

<svg xmlns="http://www.w3.org/2000/svg" width="24" height="24" fill="none" viewBox="0 0 24 24"><path stroke="currentColor" stroke-linecap="round" stroke-linejoin="round" stroke-width="1.5" d="m13.444 17.626.707-.707a5 5 0 0 0 0-7.071m-.707 7.778-7.071-7.071m7.07 7.07-2.828 4.243-8.485-8.485 4.243-2.828m0 0 .707-.707a5 5 0 0 1 7.07 0m0 0 6.718-6.718"/></svg>
